src/assets/outline/QuoteDown.svg

<svg width="24" height="24" viewBox="0 0 24 24"  xmlns="http://www.w3.org/2000/svg">
<path d="M22.0001 12.4H16.2001C14.3001 12.4 12.8701 10.97 12.8701 9.07001V5.84998C12.8701 3.94998 14.3001 2.52002 16.2001 2.52002H19.4201C21.2501 2.52002 22.7501 4.00998 22.7501 5.84998V11.65C22.7501 12.07 22.4101 12.4 22.0001 12.4ZM16.2001 4.03003C15.1401 4.03003 14.3701 4.79999 14.3701 5.85999V9.08002C14.3701 10.14 15.1401 10.91 16.2001 10.91H21.2501V5.85999C21.2501 4.84999 20.4301 4.03003 19.4201 4.03003H16.2001Z" />
<path d="M17.47 21.47C17.21 21.47 16.96 21.34 16.82 21.1C16.61 20.74 16.73 20.28 17.08 20.07C20.31 18.15 21.25 17.35 21.25 11.65C21.25 11.24 21.59 10.9 22 10.9C22.41 10.9 22.75 11.24 22.75 11.65C22.75 17.9 21.48 19.21 17.85 21.36C17.73 21.44 17.6 21.47 17.47 21.47Z" />
<path d="M10.3702 12.4H4.57023C2.67023 12.4 1.24023 10.97 1.24023 9.07001V5.84998C1.24023 3.94998 2.67023 2.52002 4.57023 2.52002H7.80023C9.63023 2.52002 11.1302 4.00998 11.1302 5.84998V11.65C11.1202 12.07 10.7902 12.4 10.3702 12.4ZM4.58023 4.03003C3.52023 4.03003 2.75023 4.79999 2.75023 5.85999V9.08002C2.75023 10.14 3.52023 10.91 4.58023 10.91H9.63023V5.85999C9.63023 4.84999 8.81024 4.03003 7.80023 4.03003H4.58023Z" />
<path d="M5.84013 21.47C5.58013 21.47 5.33013 21.34 5.19013 21.1C4.98013 20.74 5.10013 20.28 5.45013 20.07C8.68013 18.15 9.62013 17.35 9.62013 11.65C9.62013 11.24 9.96013 10.9 10.3701 10.9C10.7801 10.9 11.1201 11.24 11.1201 11.65C11.1201 17.9 9.85013 19.21 6.22013 21.36C6.10013 21.44 5.97013 21.47 5.84013 21.47Z" />
</svg>

<?xml version="1.0" encoding="UTF-8"?>
<svg width="24" height="24" viewBox="0 0 24 24" xmlns="http://www.w3.org/2000/svg">
 <path d="m22 12.4h-5.8c-1.9 0-3.33-1.43-3.33-3.33v-3.22c0-1.9 1.43-3.33 3.33-3.33h3.22c1.83 0 3.33 1.49 3.33 3.33v5.8c0 0.42-0.34 0.75-0.75 0.75zm-5.8-8.37c-1.06 0-1.83 0.76996-1.83 1.83v3.22c0 1.06 0.77 1.83 1.83 1.83h5.05v-5.05c0-1.01-0.82-1.83-1.83-1.83h-3.22z"/>
 <path d="m17.47 21.47c-0.26 0-0.51-0.13-0.65-0.37-0.21-0.36-0.09-0.82 0.26-1.03 3.23-1.92 4.17-2.72 4.17-8.42 0-0.41 0.34-0.75 0.75-0.75s0.75 0.34 0.75 0.75c0 6.25-1.27 7.56-4.9 9.71-0.12 0.08-0.25 0.11-0.38 0.11z"/>
 <path d="m10.37 12.4h-5.8c-1.9 0-3.33-1.43-3.33-3.33v-3.22c0-1.9 1.43-3.33 3.33-3.33h3.23c1.83 0 3.33 1.49 3.33 3.33v5.8c-0.01 0.42-0.34 0.75-0.76 0.75zm-5.79-8.37c-1.06 0-1.83 0.76996-1.83 1.83v3.22c0 1.06 0.77 1.83 1.83 1.83h5.05v-5.05c0-1.01-0.81999-1.83-1.83-1.83h-3.22z"/>
 <path d="m5.8401 21.47c-0.26 0-0.51-0.13-0.65-0.37-0.21-0.36-0.09-0.82 0.26-1.03 3.23-1.92 4.17-2.72 4.17-8.42 0-0.41 0.34-0.75 0.74997-0.75 0.41 0 0.75 0.34 0.75 0.75 0 6.25-1.27 7.56-4.9 9.71-0.12 0.08-0.25 0.11-0.38 0.11z"/>
</svg>
